!!!OTL@@FUR: A Cerzuvint di sore...
!!!OTL@IT: A Cercivento di sopra...
!!!OTL@EN: Upper and Lower Cercivento
**kern
*clefG2
*k[f#]
*G:
*M2/4
*MM110
*>[A,B,C,B,D]
*>A
16a
=1!|:
*>B
8.b
16a
8.b
16cc
=2
4dd
8.ee
16dd
=3
8.cc
16cc
8.dd
16cc
=4
4.b
16r
16a
=5
8.b
16a
8.b
16cc
=6
4dd
8.ee
16dd
=7
8.cc
16cc
8.dd
16cc
=8
*>C
4.b
16r
16b
=9
8.a
16b
8.a
16b
=10
4.a
16r
16a
=11
8.f#
16a
8.e
16a
=12
4.d
16r
16a
=13:|!
*>D
2b
==
*-
!!!ARE: Friuli
!!!ENC: Kelly Leistikow
!!!END: 2002/02/05
!!!ref: @{OTL@@FUR}/@{OTL@EN}
